neru-light-classic/22x22/panel/caffeine-cup-full.svg

<?xml version="1.0" encoding="UTF-8" standalone="no"?>
<svg
   xmlns:dc="http://purl.org/dc/elements/1.1/"
   xmlns:cc="http://creativecommons.org/ns#"
   xmlns:rdf="http://www.w3.org/1999/02/22-rdf-syntax-ns#"
   xmlns:svg="http://www.w3.org/2000/svg"
   xmlns="http://www.w3.org/2000/svg"
   xmlns:sodipodi="http://sodipodi.sourceforge.net/DTD/sodipodi-0.dtd"
   xmlns:inkscape="http://www.inkscape.org/namespaces/inkscape"
   width="22"
   height="22"
   version="1.1"
   id="svg7"
   sodipodi:docname="caffeine-cup-full.svg"
   inkscape:version="0.92.4 5da689c313, 2019-01-14">
  <metadata
     id="metadata11">
    <rdf:RDF>
      <cc:Work
         rdf:about="">
        <dc:format>image/svg+xml</dc:format>
        <dc:type
           rdf:resource="http://purl.org/dc/dcmitype/StillImage" />
      </cc:Work>
    </rdf:RDF>
  </metadata>
  <sodipodi:namedview
     pagecolor="#ffffff"
     bordercolor="#666666"
     borderopacity="1"
     objecttolerance="10"
     gridtolerance="10"
     guidetolerance="10"
     inkscape:pageopacity="0"
     inkscape:pageshadow="2"
     inkscape:window-width="640"
     inkscape:window-height="515"
     id="namedview9"
     showgrid="false"
     inkscape:zoom="10.727273"
     inkscape:cx="11"
     inkscape:cy="11"
     inkscape:window-x="0"
     inkscape:window-y="28"
     inkscape:window-maximized="0"
     inkscape:current-layer="svg7" />
  <defs
     id="defs3">
    <style
       id="current-color-scheme"
       type="text/css">
   .ColorScheme-Text { color:#1e333d; } .ColorScheme-Highlight { color:#3fb7ff; }
  </style>
  </defs>
  <path
     style="fill:#1e333d;fill-opacity:1"
     class="ColorScheme-Text"
     d="M 10.193359,2 C 9.0951594,3.38422 8.7660094,4.0661956 9.1621094,4.9472656 9.5212094,5.7459356 10.449022,6.15297 9.9824219,8 10.748822,7.10008 11.357659,5.9571062 10.755859,5.0351562 10.143659,4.0974562 9.8083594,3.528 10.193359,2 Z m 3,0 c -1.0982,1.38422 -1.42735,2.0661956 -1.03125,2.9472656 C 12.521209,5.7459356 13.449022,6.15297 12.982422,8 13.748822,7.10008 14.357659,5.9571063 13.755859,5.0351562 13.143659,4.0974563 12.808359,3.528 13.193359,2 Z m 3,0 c -1.0982,1.38422 -1.42735,2.0661956 -1.03125,2.9472656 C 15.521209,5.7459356 16.449022,6.15297 15.982422,8 16.748822,7.10008 17.357659,5.9571063 16.755859,5.0351562 16.143659,4.0974563 15.808359,3.528 16.193359,2 Z M 7,9 c -2.209139,0 -4,1.790861 -4,4 0,2.209139 1.790861,4 4,4 0.2424594,-8.38e-4 0.4843405,-0.02372 0.7226562,-0.06836 C 8.4620206,18.481091 9.9580363,19 13,19 19,19 19,17 19,9 L 7,9 Z m 0,2 0.00781,0 c 0.011613,1.596219 0.052166,2.938455 0.1953125,3.986328 C 7.1356935,14.994331 7.0678957,14.998894 7,15 5.8954305,15 5,14.104569 5,13 5,11.895431 5.8954305,11 7,11 Z"
     id="path5" />
</svg>

<svg xmlns="http://www.w3.org/2000/svg" width="22" height="22" version="1.1" id="svg7"><defs id="defs3"><style id="current-color-scheme" type="text/css"></style></defs><path d="M10.193 2c-1.098 1.384-1.427 2.066-1.03 2.947.358.799 1.286 1.206.82 3.053.766-.9 1.375-2.043.773-2.965-.612-.938-.948-1.507-.563-3.035zm3 0c-1.098 1.384-1.427 2.066-1.03 2.947.358.799 1.286 1.206.82 3.053.766-.9 1.375-2.043.773-2.965-.612-.938-.948-1.507-.563-3.035zm3 0c-1.098 1.384-1.427 2.066-1.03 2.947.358.799 1.286 1.206.82 3.053.766-.9 1.375-2.043.773-2.965-.612-.938-.948-1.507-.563-3.035zM7 9a4 4 0 1 0 .723 7.932C8.462 18.482 9.958 19 13 19c6 0 6-2 6-10H7zm0 2h.008c.011 1.596.052 2.938.195 3.986A2 2 0 0 1 7 15a2 2 0 0 1 0-4z" id="path5" fill="#1e333d" fill-opacity="1" color="#1e333d"/></svg>
